X: 1
T: les Moutons
M: 2/4
L: 1/16
Z: 2009 John Chambers <jc:trillian.mit.edu>
S: handwritten MS of unknown origin
K: D
|: A3G F2D2 | E3G F2G2 | A3G F2D2 | E3G F4 :: F3G F2E2 | F2D2 B,4 |
| E2FE D2B,2 | E2CE D2B,2 | F3G F2E2 | FED2 B,4 | F2GF E2[^GA,]2 | [AB,]2C2 D4 :|
